vendor/symfony/symfony/src/Symfony/Bundle/WebProfilerBundle/Resources/views/Icon/twig.svg

<svg xmlns="http://www.w3.org/2000/svg" width="24" height="24" viewBox="0 0 24 24"><path fill="#AAA" d="M20.1 1H3.9A2.9 2.9 0 0 0 1 3.9v16.3C1 21.7 2.3 23 3.9 23h16.3c1.6 0 2.9-1.3 2.9-2.9V3.9a3 3 0 0 0-3-2.9zm.9 19.1c0 .5-.4.9-.9.9H3.9a.9.9 0 0 1-.9-.9V3.9c0-.5.4-.9.9-.9h16.3c.4 0 .8.4.8.9v16.2zM5 5h14v3H5V5zm0 5h3v9H5v-9zm5 0h9v9h-9v-9z"/></svg>

<svg version="1.1" xmlns="http://www.w3.org/2000/svg" x="0px" y="0px" width="24" height="24" viewBox="0 0 24 24" enable-background="new 0 0 24 24" xml:space="preserve">
<path fill="#AAAAAA" d="M20.1,1H3.9C2.3,1,1,2.3,1,3.9v16.3C1,21.7,2.3,23,3.9,23h16.3c1.6,0,2.9-1.3,2.9-2.9V3.9
    C23,2.3,21.7,1,20.1,1z M21,20.1c0,0.5-0.4,0.9-0.9,0.9H3.9C3.4,21,3,20.6,3,20.1V3.9C3,3.4,3.4,3,3.9,3h16.3C20.6,3,21,3.4,21,3.9
    V20.1z M5,5h14v3H5V5z M5,10h3v9H5V10z M10,10h9v9h-9V10z"/>
</svg>
